public/images/Npaper.svg

<svg width="22" height="25" viewBox="0 0 22 25" fill="none" xmlns="http://www.w3.org/2000/svg">

<mask id="path-1-inside-1_1070_1310" fill="white">
<path fill-rule="evenodd" clip-rule="evenodd" d="M13.4067 0H2C0.895431 0 0 0.895428 0 2V22.1652C0 23.2698 0.895433 24.1652 2 24.1652H19.5909C20.6955 24.1652 21.5909 23.2698 21.5909 22.1652V7.96521L13.4067 0Z"/>
</mask>
<path fill-rule="evenodd" clip-rule="evenodd" d="M13.4067 0H2C0.895431 0 0 0.895428 0 2V22.1652C0 23.2698 0.895433 24.1652 2 24.1652H19.5909C20.6955 24.1652 21.5909 23.2698 21.5909 22.1652V7.96521L13.4067 0Z" fill="url(#paint0_linear_1070_1310)" fill-opacity="0.05"/>
<path d="M13.4067 0L14.1042 -0.716629L13.813 -1H13.4067V0ZM21.5909 7.96521H22.5909V7.54303L22.2884 7.24858L21.5909 7.96521ZM2 1H13.4067V-1H2V1ZM1 2C1 1.44771 1.44771 1 2 1V-1C0.343147 -1 -1 0.343142 -1 2H1ZM1 22.1652V2H-1V22.1652H1ZM2 23.1652C1.44772 23.1652 1 22.7175 1 22.1652H-1C-1 23.8221 0.34315 25.1652 2 25.1652V23.1652ZM19.5909 23.1652H2V25.1652H19.5909V23.1652ZM20.5909 22.1652C20.5909 22.7175 20.1432 23.1652 19.5909 23.1652V25.1652C21.2478 25.1652 22.5909 23.8221 22.5909 22.1652H20.5909ZM20.5909 7.96521V22.1652H22.5909V7.96521H20.5909ZM22.2884 7.24858L14.1042 -0.716629L12.7093 0.716629L20.8935 8.68184L22.2884 7.24858Z" fill="#11D9EB" mask="url(#path-1-inside-1_1070_1310)"/>
<path d="M5.39746 8.52856H11.8747" stroke="#11D9EB" stroke-linecap="round"/>
<path d="M5.39746 12.7305H16.1929" stroke="#11D9EB" stroke-linecap="round"/>
<path d="M5.39746 16.9333H16.1929" stroke="#11D9EB" stroke-linecap="round"/>
<defs>
<filter id="filter0_b_1070_1310" x="-30" y="-30" width="81.5908" height="84.1653" filterUnits="userSpaceOnUse" color-interpolation-filters="sRGB">
<feFlood flood-opacity="0" result="BackgroundImageFix"/>
<feGaussianBlur in="BackgroundImage" stdDeviation="15"/>
<feComposite in2="SourceAlpha" operator="in" result="effect1_backgroundBlur_1070_1310"/>
<feBlend mode="normal" in="SourceGraphic" in2="effect1_backgroundBlur_1070_1310" result="shape"/>
</filter>
<linearGradient id="paint0_linear_1070_1310" x1="0.503849" y1="20.0582" x2="21.3492" y2="19.7638" gradientUnits="userSpaceOnUse">
<stop stop-color="#E42BC8"/>
<stop offset="0.52934" stop-color="#5670FD"/>
<stop offset="1" stop-color="#1DCEF4"/>
</linearGradient>
</defs>
</svg>

<svg width="22" height="25" fill="none" xmlns="http://www.w3.org/2000/svg"><mask id="b" fill="#fff"><path fill-rule="evenodd" clip-rule="evenodd" d="M13.407 0H2a2 2 0 0 0-2 2v20.165a2 2 0 0 0 2 2h17.59a2 2 0 0 0 2-2v-14.2L13.408 0z"/></mask><path fill-rule="evenodd" clip-rule="evenodd" d="M13.407 0H2a2 2 0 0 0-2 2v20.165a2 2 0 0 0 2 2h17.59a2 2 0 0 0 2-2v-14.2L13.408 0z" fill="url(#a)" fill-opacity=".05"/><path d="m13.407 0 .697-.717L13.813-1h-.406v1zm8.184 7.965h1v-.422l-.303-.294-.697.716zM2 1h11.407v-2H2v2zM1 2a1 1 0 0 1 1-1v-2a3 3 0 0 0-3 3h2zm0 20.165V2h-2v20.165h2zm1 1a1 1 0 0 1-1-1h-2a3 3 0 0 0 3 3v-2zm17.59 0H2v2h17.59v-2zm1-1a1 1 0 0 1-1 1v2a3 3 0 0 0 3-3h-2zm0-14.2v14.2h2v-14.2h-2zm1.698-.716L14.104-.717 12.71.717l8.184 7.965 1.395-1.433z" fill="#11D9EB" mask="url(#b)"/><path d="M5.397 8.529h6.478M5.397 12.73h10.796M5.397 16.933h10.796" stroke="#11D9EB" stroke-linecap="round"/><defs><linearGradient id="a" x1=".504" y1="20.058" x2="21.349" y2="19.764" gradientUnits="userSpaceOnUse"><stop stop-color="#E42BC8"/><stop offset=".529" stop-color="#5670FD"/><stop offset="1" stop-color="#1DCEF4"/></linearGradient></defs></svg>
